src/img/globalCRED.svg

<svg height="53" viewBox="0 0 100 53" width="100" xmlns="http://www.w3.org/2000/svg"><g fill="none" fill-rule="evenodd" transform=""><g fill="#434343"><path d="m8.81636245 8.63828277h6.45790955v.52816432c0 1.20132091-.1383342 2.26454301-.4150067 3.18969821-.2699244.8561138-.7254151 1.6569824-1.3664856 2.4026299-1.4508438 1.6708026-3.2964243 2.5061914-5.53679705 2.5061914-2.18638784 0-4.05896045-.8077726-5.61777401-2.4233421-1.55881355-1.6224737-2.33820864-3.5694129-2.33820864-5.84087602 0-2.31979213.79289111-4.28744345 2.3786971-5.90301297 1.585806-1.62247367 3.51573669-2.43369833 5.78984997-2.43369833 1.22140802 0 2.36182163.25544947 3.42127503.76635607 1.0122165.5109066 2.0075479 1.33939136 2.986024 2.48547915l-1.6802712 1.64662993c-1.282141-1.74674824-2.8443052-2.62010927-4.68653937-2.62010927-1.6532871 0-3.04000303.58339136-4.1601894 1.75019157-1.12018636 1.14608778-1.68027114 2.58212804-1.68027114 4.30816385 0 1.78126892.62419087 3.24837742 1.87259133 4.40136932 1.16742314 1.0701422 2.4326749 1.6052053 3.79579325 1.6052053 1.16067503 0 2.20324253-.4004343 3.12773363-1.2013149.9244912-.8077848 1.4407139-1.7743504 1.5486837-2.8997257h-3.89701445z"/><path d="m20.4082293.66403718v13.67641342h4.8275245v2.2604789h-7.3050866v-15.93689232z"/><path d="m45.8228161 16.6009295v-15.93689232h2.3522277c1.0476929 0 1.8824551.08257374 2.5043115.24772371.6286157.16514997 1.1592135.44383636 1.5918093.83606754.4393551.40599367.7874543.91175786 1.044308 1.51730775.2636131.61243113.3954176 1.23173423.3954176 1.85792786 0 1.14228728-.4292097 2.10908822-1.2876419 2.90043182.831395.28901244 1.4870381.79477664 1.9669491 1.51730775.4866702.71564989.7300017 1.54826849.7300017 2.49788079 0 1.245506-.4325893 2.2983213-1.2977809 3.1584774-.5204667.5298561-1.1051382.8979974-1.7540319 1.1044348-.7097274.1995563-1.5985632.2993329-2.666534.2993329zm2.3623667-9.09352471h.7401406c.8787102 0 1.5225247-.19783293 1.9314629-.59350473s.6134042-.97884888.6134042-1.74954874c0-.7500561-.2095354-1.31947089-.6286126-1.70826144-.4190772-.38879056-1.0274058-.58318292-1.8250043-.58318292h-.8313908zm0 6.83304581h1.4600034c1.0679708 0 1.8520389-.2133155 2.3522277-.639953.5272261-.4610436.7908352-1.045941.7908352-1.7547096 0-.6881249-.2534702-1.2661411-.7604184-1.734066-.4934296-.46104366-1.3755062-.69156203-2.6462562-.69156203h-1.1963917z"/><path d="m66.8151512 12.8072984h-6.7263783l-1.750283 3.7936311h-2.554192l7.7745128-16.6009295 7.4997592 16.6009295h-2.5948963zm-.9667261-2.2154805-2.3303186-5.31108348-2.4422554 5.31108348z"/><path d="m75.5284284.66403718v13.67641342h4.8275245v2.2604789h-7.3050867v-15.93689232z"/></g><path d="m23.2434574 23.8909734-.8600918 10.1134762c-1.84606-1.4596843-3.7690103-2.1895155-5.7689087-2.1895155-1.8320747 0-3.3704349.7020281-4.6151269 2.1061054-1.0908536 1.2372562-1.6362723 2.6135093-1.6362723 4.1288006 0 1.5569965.5803814 2.8428896 1.7411616 3.8577177 1.0209271.8897123 2.2795855 1.3345618 3.7760129 1.3345618 2.0558396 0 3.9438271-.7993389 5.6640194-2.3980407l-1.2796488 10.3220015c-2.489384.8619088-4.664066 1.2928567-6.5241113 1.2928567-3.3984286 0-6.37026092-1.0565175-8.91558607-3.1695843-3.2166197-2.6691369-4.82490543-6.3182929-4.82490543-10.9475773 0-5.4911933 2.12573418-9.7659188 6.3772663-12.8243049 2.7411194-1.9601475 5.8807728-2.9402065 9.4190545-2.9402065 2.4614133 0 4.9437674.4378987 7.4471366 1.3137093z" fill="#658546"/><path d="m42.0276013 40.6244811 6.2157808 11.1704188h-11.238634l-2.5532837-6.9030678c-.5720501-1.4921857-.9417842-2.7681946-1.1092135-3.8280649l-.3139283.0627552c.0418573.7251744.0627857 1.4154743.0627857 2.0709204 0 1.3666748-.0697612 2.6357109-.2092856 3.8071464l-.5859995 4.7903107h-10.3805633l3.5159972-28.5535986h11.385134c3.0974416 0 5.3646791.3207454 6.8017804.9622458 1.8696269.8367396 3.3067067 2.1406394 4.3112823 3.9117384.8092415 1.4364031 1.2138562 2.9494847 1.2138562 4.53929 0 1.2411639-.2546282 2.4160682-.7638922 3.5247483-.5092641 1.1086801-1.2173398 2.0325663-2.1242484 2.7716863-.8650513.6972831-1.8068268 1.1714285-2.8253549 1.4224504-.3627635.0836739-.8301632.1673466-1.4022132.2510206zm-7.1784944-9.7270501-.6278566 5.1250049h.8789993c1.3254817 0 2.3439946-.3137727 3.055569-.9413274.5580976-.5020438.8371422-1.1365619.8371422-1.9035733 0-1.520077-1.1022262-2.2801042-3.3067117-2.2801042z" fill="#658546"/><path d="m71.7226687 23.2413013-.9319811 7.4260275h-8.5149176l-.4024463 3.137758h7.8159318l-.8896183 7.0913333h-7.7947504l-.4024464 3.2214317h8.8326385l-.9531625 7.6770481h-19.3386064l3.558473-28.5535986z" fill="#1c5100"/><path d="m25.8998526 8.89710276c0-2.25356238.8194858-4.1891084 2.4584822-5.80669613 1.6321385-1.61758772 3.5934185-2.42636945 5.8838987-2.42636945 2.2630493 0 4.2037564.81569439 5.8221796 2.44710765 1.6252808 1.63141326 2.4379091 3.59115361 2.4379091 5.87927983 0 2.30195174-.8160571 4.25477944-2.4481957 5.85854164-1.6389963 1.6106749-3.6174203 2.4160003-5.9353314 2.4160003-2.0504598 0-3.8917314-.7154607-5.52387-2.1464037-1.796724-1.5830239-2.6950725-3.6568232-2.6950725-6.22146014zm2.417336.0311073c0 1.76966864.5897555 3.22478444 1.7692843 4.36539124 1.172671 1.1406067 2.5270514 1.7109015 4.0631818 1.7109015 1.6664272 0 3.0722398-.5806638 4.2174799-1.7420088 1.1452401-1.1751706 1.7178515-2.6060921 1.7178515-4.29280754 0-1.70745371-.5657538-3.13837523-1.6972784-4.29280749-1.124667-1.16134503-2.5167643-1.74200884-4.1763338-1.74200884-1.6527118 0-3.0482379.58066381-4.1866203 1.74200884-1.1383823 1.14751949-1.707565 2.56461569-1.707565 4.25133109z" fill="#434343"/><path d="m73.9034191 23.2413013h9.6704935c5.0963547 0 9.0299574 1.2132543 11.8009262 3.6397993 1.5595402 1.3806205 2.7013293 3.123802 3.4254016 5.2295969.5430542 1.5758597.8145772 3.221423.8145772 4.9367394 0 2.2731428-.4525384 4.3858788-1.3576287 6.3382713-.9050903 1.9523926-2.1930841 3.6049287-3.8640201 4.9576578-1.9494253 1.5479684-4.1076852 2.5380955-6.4748444 2.970411-1.8519541.3207502-3.8848957.4811229-6.0988858.4811229h-11.4249675zm9.3154214 8.3882733-1.4411751 11.6724601h1.4620617c.8493924 0 1.7022532-.2022091 2.5586079-.6066332.8563546-.4044242 1.5630107-.9413241 2.1199894-1.6107159.9747126-1.1853812 1.4620616-2.6217627 1.4620616-4.3091878 0-1.3945661-.4177277-2.5729568-1.2531957-3.5352074-.9607882-1.0738159-2.1791607-1.6107158-3.6551541-1.6107158z" fill="#1c5100"/></g></svg>

<?xml version="1.0" encoding="UTF-8"?>
<svg width="100px" height="53px" viewBox="0 0 100 53" version="1.1" xmlns="http://www.w3.org/2000/svg" xmlns:xlink="http://www.w3.org/1999/xlink">
    <!-- Generator: Sketch 52 (66869) - http://www.bohemiancoding.com/sketch -->
    <title>Group</title>
    <desc>Created with Sketch.</desc>
    <g id="Page-1" stroke="none" stroke-width="1" fill="none" fill-rule="evenodd">
        <g id="Artboard" transform="translate(-111.000000, -57.000000)">
            <g id="Group" transform="translate(111.000000, 57.000000)">
                <path d="M8.81636245,8.63828277 L15.274272,8.63828277 L15.274272,9.16644709 C15.274272,10.367768 15.1359378,11.4309901 14.8592653,12.3561453 C14.5893409,13.2122591 14.1338502,14.0131277 13.4927797,14.7587752 C12.0419359,16.4295778 10.1963554,17.2649666 7.95598265,17.2649666 C5.76959481,17.2649666 3.8970222,16.457194 2.33820864,14.8416245 C0.779395086,13.2191508 0,11.2722116 0,9.00074848 C0,6.68095635 0.792891105,4.71330503 2.3786971,3.09773551 C3.9645031,1.47526184 5.89443379,0.664037179 8.16854707,0.664037179 C9.38995509,0.664037179 10.5303687,0.919486648 11.5898221,1.43039325 C12.6020386,1.94129985 13.59737,2.76978461 14.5758461,3.9158724 L12.8955749,5.56250233 C11.6134339,3.81575409 10.0512697,2.94239306 8.20903553,2.94239306 C6.55574843,2.94239306 5.1690325,3.52578442 4.04884613,4.69258463 C2.92865977,5.83867241 2.36857499,7.27471267 2.36857499,9.00074848 C2.36857499,10.7820174 2.99276586,12.2491259 4.24116632,13.4021178 C5.40858946,14.47226 6.67384122,15.0073231 8.03695957,15.0073231 C9.1976346,15.0073231 10.2402021,14.6068888 11.1646932,13.8060082 C12.0891844,12.9982234 12.6054071,12.0316578 12.7133769,10.9062825 L8.81636245,10.9062825 L8.81636245,8.63828277 Z" id="Path" fill="#434343"></path>
                <polygon id="Path" fill="#434343" points="20.4082293 0.664037179 20.4082293 14.3404506 25.2357538 14.3404506 25.2357538 16.6009295 17.9306672 16.6009295 17.9306672 0.664037179"></polygon>
                <path d="M45.8228161,16.6009295 L45.8228161,0.664037179 L48.1750438,0.664037179 C49.2227367,0.664037179 50.0574989,0.746610924 50.6793553,0.911760893 C51.307971,1.07691086 51.8385688,1.35559725 52.2711646,1.74782843 C52.7105197,2.1538221 53.0586189,2.65958629 53.3154726,3.26513618 C53.5790857,3.87756731 53.7108902,4.49687041 53.7108902,5.12306404 C53.7108902,6.26535132 53.2816805,7.23215226 52.4232483,8.02349586 C53.2546433,8.3125083 53.9102864,8.8182725 54.3901974,9.54080361 C54.8768676,10.2564535 55.1201991,11.0890721 55.1201991,12.0386844 C55.1201991,13.2841904 54.6876098,14.3370057 53.8224182,15.1971618 C53.3019515,15.7270179 52.71728,16.0951592 52.0683863,16.3015966 C51.3586589,16.5011529 50.4698231,16.6009295 49.4018523,16.6009295 L45.8228161,16.6009295 Z M48.1851828,7.50740479 L48.9253234,7.50740479 C49.8040336,7.50740479 50.4478481,7.30957186 50.8567863,6.91390006 C51.2657245,6.51822826 51.4701905,5.93505118 51.4701905,5.16435132 C51.4701905,4.41429522 51.2606551,3.84488043 50.8415779,3.45608988 C50.4225007,3.06729932 49.8141721,2.87290696 49.0165736,2.87290696 L48.1851828,2.87290696 L48.1851828,7.50740479 Z M48.1851828,14.3404506 L49.6451862,14.3404506 C50.713157,14.3404506 51.4972251,14.1271351 51.9974139,13.7004976 C52.52464,13.239454 52.7882491,12.6545566 52.7882491,11.945788 C52.7882491,11.2576631 52.5347789,10.6796469 52.0278307,10.211722 C51.5344011,9.75067834 50.6523245,9.52015997 49.3815745,9.52015997 L48.1851828,9.52015997 L48.1851828,14.3404506 Z" id="Combined-Shape" fill="#434343"></path>
                <path d="M66.8151512,12.8072984 L60.0887729,12.8072984 L58.3384899,16.6009295 L55.7842979,16.6009295 L63.5588107,0 L71.0585699,16.6009295 L68.4636736,16.6009295 L66.8151512,12.8072984 Z M65.8484251,10.5918179 L63.5181065,5.28073442 L61.0758511,10.5918179 L65.8484251,10.5918179 Z" id="Combined-Shape" fill="#434343"></path>
                <polygon id="Path" fill="#434343" points="75.5284284 0.664037179 75.5284284 14.3404506 80.3559529 14.3404506 80.3559529 16.6009295 73.0508662 16.6009295 73.0508662 0.664037179"></polygon>
                <path d="M23.2434574,23.8909734 L22.3833656,34.0044496 C20.5373056,32.5447653 18.6143553,31.8149341 16.6144569,31.8149341 C14.7823822,31.8149341 13.244022,32.5169622 11.99933,33.9210395 C10.9084764,35.1582957 10.3630577,36.5345488 10.3630577,38.0498401 C10.3630577,39.6068366 10.9434391,40.8927297 12.1042193,41.9075578 C13.1251464,42.7972701 14.3838048,43.2421196 15.8802322,43.2421196 C17.9360718,43.2421196 19.8240593,42.4427807 21.5442516,40.8440789 L20.2646028,51.1660804 C17.7752188,52.0279892 15.6005368,52.4589371 13.7404915,52.4589371 C10.3420629,52.4589371 7.37023058,51.4024196 4.82490543,49.2893528 C1.60828573,46.6202159 0,42.9710599 0,38.3417755 C0,32.8505822 2.12573418,28.5758567 6.3772663,25.5174706 C9.1183857,23.5573231 12.2580391,22.5772641 15.7963208,22.5772641 C18.2577341,22.5772641 20.7400882,23.0151628 23.2434574,23.8909734 Z" id="Path" fill="#658546"></path>
                <path d="M42.0276013,40.6244811 L48.2433821,51.7948999 L37.0047481,51.7948999 L34.4514644,44.8918321 C33.8794143,43.3996464 33.5096802,42.1236375 33.3422509,41.0637672 L33.0283226,41.1265224 C33.0701799,41.8516968 33.0911083,42.5419967 33.0911083,43.1974428 C33.0911083,44.5641176 33.0213471,45.8331537 32.8818227,47.0045892 L32.2958232,51.7948999 L21.9152599,51.7948999 L25.4312571,23.2413013 L36.8163911,23.2413013 C39.9138327,23.2413013 42.1810702,23.5620467 43.6181715,24.2035471 C45.4877984,25.0402867 46.9248782,26.3441865 47.9294538,28.1152855 C48.7386953,29.5516886 49.14331,31.0647702 49.14331,32.6545755 C49.14331,33.8957394 48.8886818,35.0706437 48.3794178,36.1793238 C47.8701537,37.2880039 47.162078,38.2118901 46.2551694,38.9510101 C45.3901181,39.6482932 44.4483426,40.1224386 43.4298145,40.3734605 C43.067051,40.4571344 42.5996513,40.5408071 42.0276013,40.6244811 Z M34.8491069,30.897431 L34.2212503,36.0224359 L35.1002496,36.0224359 C36.4257313,36.0224359 37.4442442,35.7086632 38.1558186,35.0811085 C38.7139162,34.5790647 38.9929608,33.9445466 38.9929608,33.1775352 C38.9929608,31.6574582 37.8907346,30.897431 35.6862491,30.897431 L34.8491069,30.897431 Z" id="Combined-Shape" fill="#658546"></path>
                <polygon id="Path" fill="#1C5100" points="71.7226687 23.2413013 70.7906876 30.6673288 62.27577 30.6673288 61.8733237 33.8050868 69.6892555 33.8050868 68.7996372 40.8964201 61.0048868 40.8964201 60.6024404 44.1178518 69.4350789 44.1178518 68.4819164 51.7948999 49.14331 51.7948999 52.701783 23.2413013"></polygon>
                <path d="M25.8998526,8.89710276 C25.8998526,6.64354038 26.7193384,4.70799436 28.3583348,3.09040663 C29.9904733,1.47281891 31.9517533,0.664037179 34.2422335,0.664037179 C36.5052828,0.664037179 38.4459899,1.47973157 40.0644131,3.11114483 C41.6896939,4.74255809 42.5023222,6.70229844 42.5023222,8.99042466 C42.5023222,11.2923764 41.6862651,13.2452041 40.0541265,14.8489663 C38.4151302,16.4596412 36.4367062,17.2649666 34.1187951,17.2649666 C32.0683353,17.2649666 30.2270637,16.5495059 28.5949251,15.1185629 C26.7982011,13.535539 25.8998526,11.4617397 25.8998526,8.89710276 Z M28.3171886,8.92821006 C28.3171886,10.6978787 28.9069441,12.1529945 30.0864729,13.2936013 C31.2591439,14.434208 32.6135243,15.0045028 34.1496547,15.0045028 C35.8160819,15.0045028 37.2218945,14.423839 38.3671346,13.262494 C39.5123747,12.0873234 40.0849861,10.6564019 40.0849861,8.96968646 C40.0849861,7.26223275 39.5192323,5.83131123 38.3877077,4.67687897 C37.2630407,3.51553394 35.8709434,2.93487013 34.2113739,2.93487013 C32.5586621,2.93487013 31.163136,3.51553394 30.0247536,4.67687897 C28.8863713,5.82439846 28.3171886,7.24149466 28.3171886,8.92821006 Z" id="Combined-Shape" fill="#434343"></path>
                <path d="M73.9034191,23.2413013 L83.5739126,23.2413013 C88.6702673,23.2413013 92.60387,24.4545556 95.3748388,26.8811006 C96.934379,28.2617211 98.0761681,30.0049026 98.8002404,32.1106975 C99.3432946,33.6865572 99.6148176,35.3321205 99.6148176,37.0474369 C99.6148176,39.3205797 99.1622792,41.4333157 98.2571889,43.3857082 C97.3520986,45.3381008 96.0641048,46.9906369 94.3931688,48.343366 C92.4437435,49.8913344 90.2854836,50.8814615 87.9183244,51.313777 C86.0663703,51.6345272 84.0334287,51.7948999 81.8194386,51.7948999 L70.3944711,51.7948999 L73.9034191,23.2413013 Z M83.2188405,31.6295746 L81.7776654,43.3020347 L83.2397271,43.3020347 C84.0891195,43.3020347 84.9419803,43.0998256 85.798335,42.6954015 C86.6546896,42.2909773 87.3613457,41.7540774 87.9183244,41.0846856 C88.893037,39.8993044 89.380386,38.4629229 89.380386,36.7754978 C89.380386,35.3809317 88.9626583,34.202541 88.1271903,33.2402904 C87.1664021,32.1664745 85.9480296,31.6295746 84.4720362,31.6295746 L83.2188405,31.6295746 Z" id="Combined-Shape" fill="#1C5100"></path>
            </g>
        </g>
    </g>
</svg>
